X:30
T:Gray's Inn Mask.(p)1651.PLFD.030
T:Mad Tom. (p)1651.PLFD.030
M:4/4
L:1/4
Q:1/2=100
S:Playford, Dancing Master,1st Ed.,1651.
O:England
H:1651.
Z:Chris Partington.
K:C
dd/e/fd|aAA2|AA/B/cA|dd2d|
F>FG>G|A/B/c/B/A>A|B/c/d/e/fe|d4:|
Q:1/2=150
|:defg|a2a2|g2f2|e4|d2d2|^c2B2|A4-|A4:|
|:c2A2|e4|f2d2|f4|e3f|g4|f4-|f4:|
|:f2ed|c4|a2gf|e4||
f2f2|f2d2|f2g2|a2a2|b2b2|a2g2|f4-|f4:|
M:6/4
K:D
L:1/4
Q:3/4=90
d|d>eff>ga|A3-A2A|A>Bcc>de|G3-G2G|
G>ABB>cd|F3d2e|f>ga/g/fe2|d3-d2:|
